packages/symbols/svgs/outline/arrow-trend-up-outline.svg

<svg width="24" height="24" viewBox="0 0 24 24" fill="none" xmlns="http://www.w3.org/2000/svg">
<path fill-rule="evenodd" clip-rule="evenodd" d="M22.1668 6.75475C22.5784 7.12301 22.6135 7.7552 22.2452 8.16679L13.7452 17.6668C13.562 17.8716 13.3025 17.992 13.0277 17.9996C12.753 18.0072 12.4872 17.9014 12.2929 17.7071L7 12.4142L2.70711 16.7071C2.31658 17.0976 1.68342 17.0976 1.29289 16.7071C0.902369 16.3166 0.902369 15.6834 1.29289 15.2929L6.29289 10.2929C6.68342 9.90236 7.31658 9.90236 7.70711 10.2929L12.9596 15.5454L20.7548 6.8332C21.123 6.42161 21.7552 6.38649 22.1668 6.75475Z" fill="black"/>
<path fill-rule="evenodd" clip-rule="evenodd" d="M14 7C14 6.44772 14.4477 6 15 6H22C22.5523 6 23 6.44772 23 7V14C23 14.5523 22.5523 15 22 15C21.4477 15 21 14.5523 21 14V8H15C14.4477 8 14 7.55228 14 7Z" fill="black"/>
</svg>

<svg width="24" height="24" viewBox="0 0 24 24" xmlns="http://www.w3.org/2000/svg"><path fill-rule="evenodd" clip-rule="evenodd" d="M22.167 6.755a1 1 0 0 1 .078 1.412l-8.5 9.5a1 1 0 0 1-1.452.04L7 12.414l-4.293 4.293a1 1 0 0 1-1.414-1.414l5-5a1 1 0 0 1 1.414 0l5.253 5.252 7.795-8.712a1 1 0 0 1 1.412-.078Z"/><path fill-rule="evenodd" clip-rule="evenodd" d="M14 7a1 1 0 0 1 1-1h7a1 1 0 0 1 1 1v7a1 1 0 1 1-2 0V8h-6a1 1 0 0 1-1-1Z"/></svg>
